X:1
T:Egypt
C:James Leach
H:Words by Charles Wesley
M:C|
L:1/2
K:G min
V:1
z B | d B | (A/G/) ^F | G2 | z B | A A B A B2 || z d |
w:1.~And am I born  to die? To lay this bo- dy down? And
c B | A c | d G | ^F2 | z d | B A//B//c//A// | G ^F | G2 |]
w:must my trem- bling spir- it fly In- to a * * * world un- known..
V:2
z D | D G | E D | D2 | z D | F F | D F F2 || z F |
w:2.~A land of deep- est shade, Un- pierc'd by hu- man thought; The
F F | F G | D D | D2 | z D | F E | D D | D2 |]
w:drear- y re- gion of the dead, Where all things are for- got!
V:3
K:G min -8va
z G | B d | (c/ B/) A | G2 | z B | d f | B c | d2 || z d |
w:3.~Soon as from earth  I go, What will be- come of me? E-
f d | c e | (d3/4 c//) B | A2 | z B | d c//d//e//c// | B A | G2 |]
w:ter- nal hap- pi- ness  or woe Must then my * * * por- tion be!
V:4
K:G min bass
z g | g B | c d | G2 | z g | (f3/4 e//) d | g f | B2 || z b |
w:4~Waked by the trum- pet sound. I from my grave shall rise, And
a b | f c | (B3/4 A//) G | d2 | z g | B c | d d | G2 |]
w:see the Judge with glo-  ry crown'd. And see the fla- ming skies!

